assets/icons/close.svg

<svg width="24" height="25" viewBox="0 0 24 25" fill="none" xmlns="http://www.w3.org/2000/svg">
<path fill-rule="evenodd" clip-rule="evenodd" d="M3.29296 3.9304C3.68352 3.53991 4.31669 3.53997 4.70717 3.93053L11.9986 11.2234L19.293 3.9304C19.6835 3.53991 20.3167 3.53997 20.7072 3.93053C21.0977 4.3211 21.0976 4.95426 20.707 5.34475L13.4135 12.6369L20.7071 19.9305C21.0976 20.321 21.0976 20.9542 20.7071 21.3447C20.3166 21.7352 19.6834 21.7352 19.2929 21.3447L12 14.0518L4.70711 21.3447C4.31658 21.7352 3.68342 21.7352 3.29289 21.3447C2.90237 20.9542 2.90237 20.321 3.29289 19.9305L10.5851 12.6383L3.29283 5.34461C2.90234 4.95405 2.9024 4.32089 3.29296 3.9304Z" fill="#111111"/>
</svg>

<svg xmlns="http://www.w3.org/2000/svg" width="24" height="25" fill="none" viewBox="0 0 24 25"><path fill="#111" fill-rule="evenodd" d="M3.293 3.93a1 1 0 0 1 1.414 0L12 11.224l7.294-7.293a1 1 0 1 1 1.414 1.415l-7.293 7.292 7.293 7.293a1 1 0 0 1-1.414 1.415L12 14.052l-7.293 7.293a1 1 0 0 1-1.414-1.415l7.292-7.292-7.292-7.293a1 1 0 0 1 0-1.415" clip-rule="evenodd"/></svg>
